packages/bezier-icons/icons/strikethrough.svg

<svg width="24" height="24" viewBox="0 0 24 24" fill="none" xmlns="http://www.w3.org/2000/svg">
<path fill-rule="evenodd" clip-rule="evenodd" d="M17.2074 5.28991C14.9169 2.6722 10.9505 2.35897 8.24838 4.52067C7.53387 5.09228 6.99109 5.86446 6.70032 6.73675C6.19023 8.26703 6.49915 9.82216 7.33726 11H4C3.44772 11 3 11.4477 3 12C3 12.5523 3.44772 13 4 13H12.7854C14.6682 13 15.9977 14.8446 15.4023 16.6308C15.2349 17.1331 14.9192 17.584 14.5022 17.9176C12.6218 19.4219 9.87166 19.1919 8.29772 17.3931L8.25258 17.3415C7.88889 16.9259 7.25713 16.8837 6.8415 17.2474C6.42586 17.6111 6.38374 18.2429 6.74742 18.6585L6.79256 18.7101C9.08305 21.3278 13.0495 21.641 15.7516 19.4793C16.4661 18.9077 17.0089 18.1355 17.2997 17.2633C17.8098 15.733 17.5008 14.1778 16.6627 13H20C20.5523 13 21 12.5523 21 12C21 11.4477 20.5523 11 20 11H11.2146C9.33179 11 8.00229 9.15541 8.59769 7.3692C8.76514 6.86687 9.08082 6.41597 9.49777 6.08241C11.3782 4.57809 14.1283 4.80813 15.7023 6.60692L15.7474 6.6585C16.1111 7.07414 16.7429 7.11626 17.1585 6.75258C17.5741 6.38889 17.6163 5.75713 17.2526 5.3415L17.2074 5.28991Z" fill="#313234"/>
</svg>

<svg xmlns="http://www.w3.org/2000/svg" width="24" height="24" fill="none" viewBox="0 0 24 24"><path fill="#313234" fill-rule="evenodd" d="M17.207 5.29c-2.29-2.618-6.257-2.931-8.959-.77A4.8 4.8 0 0 0 6.7 6.738 4.73 4.73 0 0 0 7.337 11H4a1 1 0 1 0 0 2h8.785a2.758 2.758 0 0 1 1.717 4.918c-1.88 1.504-4.63 1.274-6.204-.525l-.045-.052a1 1 0 0 0-1.506 1.317l.046.052c2.29 2.618 6.257 2.931 8.959.77a4.8 4.8 0 0 0 1.548-2.217A4.73 4.73 0 0 0 16.663 13H20a1 1 0 1 0 0-2h-8.785a2.758 2.758 0 0 1-1.717-4.918c1.88-1.504 4.63-1.274 6.204.525l.045.051a1 1 0 0 0 1.506-1.317z" clip-rule="evenodd"/></svg>
